X:1
T:Title
L:1/8
M:4/4
I:linebreak $
K:G
V:1 treble nm="Voice"
V:1
"G" d2 e2 f2 g2 | d2 Bd gagf |"C" e2 d2 c2 B2 |"D" A2 G2 BABc |"G" d2 e2 f2 g2 | d2 Bd gagf | %6
"C" e2 d2 c3 c |[M:2/4] eg ec |1[M:4/4]"G" d3 B BABc :|2"G" d2 g2"D" f2 a2 |"G" g2 d2 gage | %11
[M:2/4] dB BA |:[M:4/4]"G" G3 B AGAB |"C" c3 c BAGB |"D" A3 c BABc |[M:2/4]"G" dB BA | %16
[M:4/4]"G" G3 B AGAB |"C" cBce"D" dAAc |[M:2/4]"G" B2 AF :|[M:4/4]"D" dAAc"G" B2 AF | G3 B BABc |] %21
